X:57
T:Oddfellows in Plainville, The
C:Ed Yother
C:http://edyother.com
M:6/8
R:jig
K:G
BA/B/B dBA | GAG FED | B,B,/B,/B, DB,D | EGF EDB, |
BA/B/B dBA | GAG FED | B,B,/B,/B, DB,D | EGF EE/E/E :|
|: dd/d/d dcB | GBd gfe | dd/d/d dcB | GAB cBA |
BA/B/B dBA | GAG FED | B,B,/B,/B, DB,D | EGF E3 :|

